icons/linear-ele-office-book-notebook-1.svg

<svg xmlns="http://www.w3.org/2000/svg" width="32px" height="32px" viewBox="0 0 32 32" version="1.1">
    <title>linear-ele-office-book-notebook-1</title>
    <g id="linear-ele-office-book-notebook-1" stroke-width="1" fill-rule="evenodd">
        <path d="M27,2 C27.5522847,2 28,2.44771525 28,3 L28,29 C28,29.5522847 27.5522847,30 27,30 L5,30 C4.44771525,30 4,29.5522847 4,29 L4,26 L3,26 C2.44771525,26 2,25.5522847 2,25 C2,24.4477153 2.44771525,24 3,24 L4,24 L4,20 L3,20 C2.44771525,20 2,19.5522847 2,19 C2,18.4477153 2.44771525,18 3,18 L4,18 L4,14 L3,14 C2.44771525,14 2,13.5522847 2,13 C2,12.4477153 2.44771525,12 3,12 L4,12 L4,8 L3,8 C2.44771525,8 2,7.55228475 2,7 C2,6.44771525 2.44771525,6 3,6 L4,6 L4,3 C4,2.44771525 4.44771525,2 5,2 L27,2 Z M21,4 L6,4 L6,6 L7,6 C7.55228475,6 8,6.44771525 8,7 C8,7.55228475 7.55228475,8 7,8 L6,8 L6,12 L7,12 C7.55228475,12 8,12.4477153 8,13 C8,13.5522847 7.55228475,14 7,14 L6,14 L6,18 L7,18 C7.55228475,18 8,18.4477153 8,19 C8,19.5522847 7.55228475,20 7,20 L6,20 L6,24 L7,24 C7.55228475,24 8,24.4477153 8,25 C8,25.5522847 7.55228475,26 7,26 L6,26 L6,28 L21,28 L21,4 Z M26,4 L23,4 L23,28 L26,28 L26,4 Z" id="&#24418;&#29366;" fill-rule="nonzero" />
    </g>
</svg>

<svg xmlns="http://www.w3.org/2000/svg" viewBox="0 0 32 32"><path fill="currentColor" d="M27 2a1 1 0 0 1 1 1v26a1 1 0 0 1-1 1H5a1 1 0 0 1-1-1v-3H3a1 1 0 0 1 0-2h1v-4H3a1 1 0 0 1 0-2h1v-4H3a1 1 0 0 1 0-2h1V8H3a1 1 0 1 1 0-2h1V3a1 1 0 0 1 1-1zm-6 2H6v2h1a1 1 0 1 1 0 2H6v4h1a1 1 0 0 1 0 2H6v4h1a1 1 0 0 1 0 2H6v4h1a1 1 0 0 1 0 2H6v2h15zm5 0h-3v24h3z"/></svg>
